icons/svg/closed-caption_24.svg

<svg width="24" height="24" xmlns="http://www.w3.org/2000/svg"><path d="M3 23a.5.5 0 01-.5-.5V19A2.503 2.503 0 010 16.5v-12C0 3.122 1.122 2 2.5 2h19C22.878 2 24 3.122 24 4.5v12c0 1.378-1.122 2.5-2.5 2.5H7.69l-4.358 3.874A.498.498 0 013 23zM2.5 3C1.673 3 1 3.673 1 4.5v12c0 .827.673 1.5 1.5 1.5H3a.5.5 0 01.5.5v2.887l3.668-3.261A.499.499 0 017.5 18h14c.827 0 1.5-.673 1.5-1.5v-12c0-.827-.673-1.5-1.5-1.5h-19zm14.096 3.18c2.076 0 3.54 1.368 3.66 2.952H19.02C18.864 7.956 17.928 7.2 16.596 7.2c-1.656 0-2.808 1.14-2.808 3.48 0 2.232 1.116 3.468 2.736 3.468 1.404 0 2.436-.948 2.508-2.196h1.236c-.096 1.68-1.572 3.228-3.768 3.228-2.412 0-3.96-1.62-3.96-4.5 0-2.916 1.68-4.5 4.056-4.5zm-8.748 0c2.076 0 3.54 1.368 3.66 2.952h-1.236C10.116 7.956 9.18 7.2 7.848 7.2c-1.656 0-2.808 1.14-2.808 3.48 0 2.232 1.116 3.468 2.736 3.468 1.404 0 2.436-.948 2.508-2.196h1.236c-.096 1.68-1.572 3.228-3.768 3.228-2.412 0-3.96-1.62-3.96-4.5 0-2.916 1.68-4.5 4.056-4.5z" fill="#171B1F" fill-rule="evenodd"/></svg>

<?xml version="1.0" encoding="UTF-8"?>
<svg width="24px" height="24px" viewBox="0 0 24 24" version="1.1" xmlns="http://www.w3.org/2000/svg" xmlns:xlink="http://www.w3.org/1999/xlink">
    <!-- Generator: Sketch 60.1 (88133) - https://sketch.com -->
    <title>alerts-and-notifications/closed-caption_24</title>
    <desc>Created with Sketch.</desc>
    <g id="Symbols" stroke="none" stroke-width="1" fill="none" fill-rule="evenodd">
        <g id="alerts-and-notifications/closed-caption_24" fill="#171B1F">
            <path d="M3,23 C2.931,23 2.861,22.986 2.795,22.956 C2.616,22.875 2.5,22.697 2.5,22.5 L2.5,19 C1.122,19 -7.21644966e-15,17.878 -7.21644966e-15,16.5 L-7.21644966e-15,4.5 C-7.21644966e-15,3.122 1.122,2 2.5,2 L21.5,2 C22.878,2 24,3.122 24,4.5 L24,16.5 C24,17.878 22.878,19 21.5,19 L7.69,19 L3.332,22.874 C3.239,22.957 3.12,23 3,23 L3,23 Z M2.5,3 C1.673,3 1,3.673 1,4.5 L1,16.5 C1,17.327 1.673,18 2.5,18 L3,18 C3.276,18 3.5,18.224 3.5,18.5 L3.5,21.387 L7.168,18.126 C7.259,18.045 7.377,18 7.5,18 L21.5,18 C22.327,18 23,17.327 23,16.5 L23,4.5 C23,3.673 22.327,3 21.5,3 L2.5,3 Z M16.596,6.18 C18.672,6.18 20.136,7.548 20.256,9.132 L20.256,9.132 L19.02,9.132 C18.864,7.956 17.928,7.2 16.596,7.2 C14.94,7.2 13.788,8.34 13.788,10.68 C13.788,12.912 14.904,14.148 16.524,14.148 C17.928,14.148 18.96,13.2 19.032,11.952 L19.032,11.952 L20.268,11.952 C20.172,13.632 18.696,15.18 16.5,15.18 C14.088,15.18 12.54,13.56 12.54,10.68 C12.54,7.764 14.22,6.18 16.596,6.18 Z M7.848,6.18 C9.924,6.18 11.388,7.548 11.508,9.132 L11.508,9.132 L10.272,9.132 C10.116,7.956 9.18,7.2 7.848,7.2 C6.192,7.2 5.04,8.34 5.04,10.68 C5.04,12.912 6.156,14.148 7.776,14.148 C9.18,14.148 10.212,13.2 10.284,11.952 L10.284,11.952 L11.52,11.952 C11.424,13.632 9.948,15.18 7.752,15.18 C5.34,15.18 3.792,13.56 3.792,10.68 C3.792,7.764 5.472,6.18 7.848,6.18 Z" id="Fill-1"></path>
        </g>
    </g>
</svg>
